actions/symbolic/object-straighten-symbolic.svg

<?xml version="1.0" encoding="UTF-8" standalone="no"?>
<svg
   xmlns:dc="http://purl.org/dc/elements/1.1/"
   xmlns:cc="http://creativecommons.org/ns#"
   xmlns:rdf="http://www.w3.org/1999/02/22-rdf-syntax-ns#"
   xmlns:svg="http://www.w3.org/2000/svg"
   xmlns="http://www.w3.org/2000/svg"
   xmlns:sodipodi="http://sodipodi.sourceforge.net/DTD/sodipodi-0.dtd"
   xmlns:inkscape="http://www.inkscape.org/namespaces/inkscape"
   viewBox="0 0 16 16"
   id="svg2"
   version="1.1"
   inkscape:version="0.91 r13725"
   sodipodi:docname="object-straighten-symbolic.svg">
  <metadata
     id="metadata10">
    <rdf:RDF>
      <cc:Work
         rdf:about="">
        <dc:format>image/svg+xml</dc:format>
        <dc:type
           rdf:resource="http://purl.org/dc/dcmitype/StillImage" />
      </cc:Work>
    </rdf:RDF>
  </metadata>
  <sodipodi:namedview
     pagecolor="#ffffff"
     bordercolor="#666666"
     borderopacity="1"
     objecttolerance="10"
     gridtolerance="10"
     guidetolerance="10"
     inkscape:pageopacity="0"
     inkscape:pageshadow="2"
     inkscape:window-width="640"
     inkscape:window-height="480"
     id="namedview8"
     showgrid="false"
     inkscape:zoom="39.8125"
     inkscape:cx="4.0816327"
     inkscape:cy="8"
     inkscape:current-layer="svg2" />
  <defs
     id="defs3051">
    <style
       type="text/css"
       id="current-color-scheme">
      .ColorScheme-Text {
        color:#bebebe;
      }
      </style>
  </defs>
  <path
     style="color:#bebebe;fill:currentColor;fill-opacity:1;stroke:none"
     class="ColorScheme-Text"
     d="m 10.825,2.5658609 c -0.07584,6.161e-4 -0.125,0.00936 -0.125,0.00936 l -7.875,1.4 c -0.787848,0.1389201 -0.65,0.925 -0.65,0.925 l 0.4,2.3 9.75,0 -0.7,-3.975 C 11.520808,2.6343329 11.0526,2.564005 10.825,2.5658449 Z M 2,8.0002369 2,8.800237 l 0.8,0 0,-0.8000001 -0.8,0 z m 1.6,0 0,0.8000001 0.8,0 0,-0.8000001 -0.8,0 z m 1.6,0 0,0.8000001 0.8,0 0,-0.8000001 -0.8,0 z m 1.6,0 0,0.8000001 0.8,0 0,-0.8000001 -0.8,0 z m 1.6,0 0,0.8000001 0.8,0 0,-0.8000001 -0.8,0 z m 1.5999997,0 0,0.8000001 0.8000003,0 0,-0.8000001 -0.8000003,0 z m 1.6000003,0 0,0.8000001 0.8,0 0,-0.8000001 -0.8,0 z m 1.6,0 0,0.8000001 0.8,0 0,-0.8000001 -0.8,0 z M 3,9.600237 l 0.575,3.175 c 0.13892,0.787848 0.925,0.65 0.925,0.65 l 7.875,-1.4 c 0,0 0.78892,-0.137152 0.65,-0.925 l -0.275,-1.5 -9.75,0 z"
     id="path6"
     inkscape:connector-curvature="0" />
</svg>

<svg xmlns="http://www.w3.org/2000/svg" viewBox="0 0 16 16">
  <path fill="#bebebe" d="M10.825 2.566c-.076 0-.125.01-.125.01l-7.875 1.4c-.788.138-.65.924-.65.924l.4 2.3h9.75l-.7-3.975c-.104-.59-.572-.661-.8-.66zM2 8v.8h.8V8zm1.6 0v.8h.8V8zm1.6 0v.8H6V8zm1.6 0v.8h.8V8zm1.6 0v.8h.8V8zM10 8v.8h.8V8zm1.6 0v.8h.8V8zm1.6 0v.8h.8V8zM3 9.6l.575 3.175c.139.788.925.65.925.65l7.875-1.4s.789-.137.65-.925l-.275-1.5z"/>
</svg>
